X:12
T:Patrick Sarffield, or New Lango Lee THO4.012
M:6/8
L:1/8
Z:vmp. Peter Dunk 2010/11.from a transcription by Fynn Titford-Mock 2007
B:Thompson's Compleat Collection of 200 Favourite Country Dances Volume IV.
Q:3/8=100
K:A
A3c3|BAB cAF|ECE E3|edc B2 A|A3 c3|BAB cAF|EFG A2 f|edc B2 A:|
|:cde fga|f2 d ecA|Ace ef=g|fdf a3|Ace agf|edc B2 A|A>EA A>EA|Adc B2 A:|
